static/assets/images/protocols/curve-mono.svg

<svg width="335" height="336" viewBox="0 0 335 336" fill="none" xmlns="http://www.w3.org/2000/svg">
<path d="M165.627 14.2234C187.568 22.4871 209.815 32.2912 232.366 43.6358C239.823 47.3872 246.874 51.0972 253.517 54.7658C257.102 56.7432 260.354 58.7262 263.273 60.7149C278.577 71.1217 293.734 83.0878 306.761 96.5002C308.903 98.7073 310.834 101.001 312.551 103.382C318.466 111.585 324.284 120.285 328.832 129.37C334.394 140.481 336.195 152.606 334.233 165.743C333.445 171.001 332.417 176.041 331.148 180.862C328.346 191.513 323.149 200.182 315.556 206.867C305.083 216.088 292.253 220.297 278.758 222.687C253.336 227.184 228.433 233.694 204.047 242.218C187.51 247.999 170.982 253.832 154.464 259.715C154.406 259.735 154.343 259.74 154.283 259.727C154.222 259.715 154.167 259.686 154.121 259.644C154.076 259.602 154.043 259.549 154.026 259.49C154.008 259.43 154.008 259.368 154.024 259.308C161.452 230.534 163.486 200.958 161.803 171.268C161.8 171.221 161.807 171.173 161.823 171.127C161.84 171.082 161.864 171.041 161.897 171.006C161.929 170.97 161.967 170.942 162.01 170.922C162.053 170.902 162.1 170.891 162.147 170.89C177.411 170.412 193.366 169.521 210.013 168.218C218.565 167.547 227.037 166.621 235.428 165.438C251.63 163.15 272.707 155.907 271.747 135.647C271.063 121.291 260.217 108.777 249.523 99.8505C237.812 90.0652 223.791 81.6697 209.956 74.7318C194.462 66.9654 177.432 59.7507 158.865 53.0878C155.92 52.0332 153.427 51.4381 151.385 51.3025C147.358 51.0313 143.194 51.2347 139.516 52.9861C132.02 56.5454 129.766 64.9748 131.455 72.9239C131.828 74.6678 132.628 76.8787 133.856 79.5567C136.146 84.5473 138.554 90.2836 141.081 96.7657C150.227 120.223 157.204 143.975 158.679 168.065C159.172 176.103 159.407 184.37 159.385 192.867C159.332 214.954 156.754 236.193 151.651 256.585C150.758 260.148 149.909 263.703 149.103 267.251C143.499 291.963 129.105 317.737 105.559 329.393C102.43 330.941 98.9987 332.191 95.2664 333.144C89.139 334.711 83.2977 335.634 77.7427 335.912C63.4465 336.624 51.0559 332.995 40.571 325.025C26.2165 314.11 17.2851 296.76 11.6077 279.065C4.75522 257.703 1.63688 234.607 0.546583 212.037C-0.579488 188.704 0.0343904 165.444 2.38822 142.257C2.79872 138.208 3.21111 134.406 3.62539 130.85C6.981 102.071 15.7429 73.1556 30.1991 47.9409C36.8087 36.4155 44.7062 25.8505 54.4793 17.2065C79.477 -4.90651 115.875 -2.73702 145.51 7.19517C154.255 10.1255 160.961 12.4682 165.627 14.2234ZM75.6242 169.319C67.4837 172.591 62.7497 184.568 60.8008 192.387C56.9104 207.973 57.0365 223.638 61.1793 239.381C62.6368 244.929 64.8512 250.155 67.8227 255.059C71.0484 260.381 77.5788 268.122 84.6064 263.879C90.3064 260.438 93.9389 253.393 96.2494 246.647C101.938 230.048 101.831 211.184 97.1815 194.274C95.5018 188.176 93.1894 182.773 90.2443 178.065C87.5609 173.788 81.5389 166.941 75.6242 169.319Z" fill="black"/>
<path d="M158.034 55.9183C176.999 62.8787 195.579 70.551 213.504 79.9183C226.446 86.681 239.033 94.4945 249.935 104.139C256.483 109.935 262.533 116.89 266.058 124.749C270.787 135.269 269.911 146.591 259.957 153.743C257.716 155.351 255.4 156.655 253.009 157.653C246.768 160.259 239.741 162.029 231.926 162.963C208.403 165.777 185.314 167.189 162.012 167.935C161.808 167.943 161.699 167.845 161.684 167.641C159.362 136.427 148.956 105.986 136.155 77.3872C134.954 74.7092 134.255 72.4983 134.059 70.7544C133.246 63.4889 135.619 56.6302 143.358 54.7545C145.78 54.1707 148.393 54.0012 151.199 54.246C153.203 54.423 155.481 54.9804 158.034 55.9183Z" fill="black"/>
</svg>

<svg xmlns="http://www.w3.org/2000/svg" fill="none" viewBox="0 0 335 336"><path fill="#000" d="M165.627 14.223q32.912 12.396 66.739 29.413a622 622 0 0 1 21.151 11.13q5.377 2.966 9.756 5.949c15.304 10.407 30.461 22.373 43.488 35.785a62 62 0 0 1 5.79 6.882c5.915 8.203 11.733 16.903 16.281 25.988q8.344 16.667 5.401 36.373-1.182 7.887-3.085 15.119-4.203 15.977-15.592 26.005c-10.473 9.221-23.303 13.43-36.798 15.82a479 479 0 0 0-74.711 19.531 8990 8990 0 0 0-49.583 17.497.34.34 0 0 1-.438-.225.33.33 0 0 1-.002-.182c7.428-28.774 9.462-58.35 7.779-88.04a.36.36 0 0 1 .207-.346.34.34 0 0 1 .137-.032q22.896-.717 47.866-2.672a414 414 0 0 0 25.415-2.78c16.202-2.288 37.279-9.531 36.319-29.791-.684-14.356-11.53-26.87-22.224-35.796-11.711-9.786-25.732-18.181-39.567-25.12q-23.24-11.649-51.091-21.643-4.417-1.583-7.48-1.785c-4.027-.272-8.191-.068-11.869 1.683-7.496 3.56-9.75 11.989-8.061 19.938q.56 2.616 2.401 6.633 3.435 7.486 7.225 17.209c9.146 23.457 16.123 47.209 17.598 71.299q.74 12.057.706 24.802-.08 33.13-7.734 63.718a494 494 0 0 0-2.548 10.666c-5.604 24.712-19.998 50.486-43.544 62.142q-4.694 2.322-10.293 3.751-9.19 2.35-17.523 2.768-21.444 1.068-37.172-10.887c-14.354-10.915-23.286-28.265-28.963-45.96-6.853-21.362-9.971-44.458-11.061-67.028a467 467 0 0 1 1.841-69.78q.615-6.073 1.237-11.407C6.981 102.071 15.743 73.156 30.2 47.94c6.61-11.524 14.507-22.09 24.28-30.733C79.477-4.908 115.875-2.738 145.51 7.194q13.118 4.395 20.117 7.028M75.624 169.32c-8.14 3.272-12.874 15.249-14.823 23.068q-5.836 23.38.378 46.994a59 59 0 0 0 6.644 15.678c3.225 5.322 9.756 13.063 16.783 8.82 5.7-3.441 9.333-10.486 11.643-17.232 5.689-16.599 5.582-35.463.933-52.373q-2.52-9.147-6.938-16.209c-2.683-4.277-8.705-11.124-14.62-8.746"/><path fill="#000" d="M158.034 55.918c18.965 6.96 37.545 14.633 55.47 24 12.942 6.763 25.529 14.576 36.431 24.221 6.548 5.796 12.598 12.751 16.123 20.61 4.729 10.52 3.853 21.842-6.101 28.994q-3.361 2.413-6.948 3.91-9.361 3.909-21.083 5.31c-23.523 2.814-46.612 4.226-69.914 4.972q-.306.012-.328-.294c-2.322-31.214-12.728-61.655-25.529-90.254q-1.802-4.017-2.096-6.633c-.813-7.265 1.56-14.124 9.299-16q3.632-.875 7.841-.508 3.006.265 6.835 1.672"/></svg>
